components/Common/Svg/svgs/sport.svg

<svg width="40" height="40" viewBox="0 0 40 40" fill="none" xmlns="http://www.w3.org/2000/svg">
<path fill-rule="evenodd" clip-rule="evenodd" d="M6.25376 11.2524C6.62883 10.8774 7.13754 10.6667 7.66797 10.6667H12.3346C12.8651 10.6667 13.3738 10.8774 13.7488 11.2524C14.1239 11.6275 14.3346 12.1362 14.3346 12.6667V19H25.668V12.6667C25.668 12.1362 25.8787 11.6275 26.2538 11.2524C26.6288 10.8774 27.1375 10.6667 27.668 10.6667H32.3346C32.8651 10.6667 33.3738 10.8774 33.7488 11.2524C34.1239 11.6275 34.3346 12.1362 34.3346 12.6667V14L34.3359 14H37.3359C37.8664 14 38.3751 14.2107 38.7502 14.5858C39.1252 14.9609 39.3359 15.4696 39.3359 16V24C39.3359 24.5304 39.1252 25.0391 38.7502 25.4142C38.3751 25.7893 37.8664 26 37.3359 26H34.3359H34.3346V27.3333C34.3346 27.596 34.2829 27.856 34.1824 28.0987C34.0819 28.3413 33.9346 28.5618 33.7488 28.7475C33.5631 28.9333 33.3427 29.0806 33.1 29.1811C32.8573 29.2816 32.5973 29.3333 32.3346 29.3333H27.668C27.4053 29.3333 27.1453 29.2816 26.9026 29.1811C26.66 29.0806 26.4395 28.9333 26.2538 28.7475C26.068 28.5618 25.9207 28.3413 25.8202 28.0987C25.7197 27.856 25.668 27.596 25.668 27.3333V21H14.3346V27.3333C14.3346 27.596 14.2829 27.856 14.1824 28.0987C14.0819 28.3413 13.9346 28.5618 13.7488 28.7475C13.5631 28.9333 13.3427 29.0806 13.1 29.1811C12.8573 29.2816 12.5973 29.3333 12.3346 29.3333H7.66797C7.40533 29.3333 7.14526 29.2816 6.9026 29.1811C6.65995 29.0806 6.43947 28.9333 6.25376 28.7475C6.06804 28.5618 5.92072 28.3413 5.82021 28.0987C5.7197 27.856 5.66797 27.596 5.66797 27.3333V26H2.66797C2.13754 26 1.62883 25.7893 1.25376 25.4142C0.878681 25.0391 0.667969 24.5304 0.667969 24V16C0.667969 15.4696 0.878681 14.9608 1.25376 14.5858C1.62883 14.2107 2.13754 14 2.66797 14H5.66797V12.6667C5.66797 12.1362 5.87868 11.6275 6.25376 11.2524ZM27.668 20.0515V27.3333H32.3346V12.6667H27.668V19.9485C27.6688 19.9656 27.6693 19.9827 27.6693 20C27.6693 20.0173 27.6688 20.0344 27.668 20.0515ZM7.66797 16V24V27.3333H12.3346V12.6667H7.66797V16ZM5.66797 16L2.66797 16V24H5.66797V16ZM34.3359 24H37.3359V16L34.3359 16V24Z" fill="#161616"/>
</svg>

<svg width="40" height="40" viewBox="0 0 40 40" fill="none" xmlns="http://www.w3.org/2000/svg"><path fill-rule="evenodd" clip-rule="evenodd" d="M6.254 11.252a2 2 0 0 1 1.414-.585h4.667a2 2 0 0 1 2 2V19h11.333v-6.333a2 2 0 0 1 2-2h4.667a2 2 0 0 1 2 2V14h3a2 2 0 0 1 2 2v8a2 2 0 0 1-2 2h-3v1.333a2 2 0 0 1-2 2h-4.667a2 2 0 0 1-2-2V21H14.335v6.333a2 2 0 0 1-2 2H7.668a2 2 0 0 1-2-2V26h-3a2 2 0 0 1-2-2v-8a2 2 0 0 1 2-2h3v-1.333a2 2 0 0 1 .586-1.415Zm21.414 8.8v7.281h4.667V12.667h-4.667v7.281a1.1 1.1 0 0 1 0 .104ZM7.668 16v11.333h4.667V12.667H7.668V16Zm-2 0h-3v8h3v-8Zm28.668 8h3v-8h-3v8Z" fill="#161616"/></svg>
